; generated by AnycubicSlicer 1.1.1 on 2024-08-19 at 16:16:18 UTC

; 

; external perimeters extrusion width = 0.45mm
; perimeters extrusion width = 0.40mm
; infill extrusion width = 0.45mm
; solid infill extrusion width = 0.50mm
; top infill extrusion width = 0.45mm
; first layer extrusion width = 0.56mm

M73 P0 R102
M201 X2500 Y2500 Z800 E2500 ; sets maximum accelerations, mm/sec^2
M203 X300 Y250 Z8 E80 ; sets maximum feedrates, mm / sec
M204 P2500 R2500 T2500 ; sets acceleration (P, T) and retract acceleration (R), mm/sec^2
M205 X15.00 Y10.00 Z2.00 E10.00 ; sets the jerk limits, mm/sec
M205 S0 T0 ; sets the minimum extruding and travel feed rate, mm/sec
M107
;TYPE:Custom
G90 ; use absolute coordinates
M83 ; extruder relative mode
M104 S195 ; set extruder temp
M140 S40 ; set bed temp
M190 S40 ; wait for bed temp
M109 S195 ; wait for extruder temp
G28                                        ; move X/Y/Z to min endstops
G1 Z0.28                                   ; lift nozzle a bit 
G92 E0 
G1 Y3 F1800                                    ; zero the extruded length 
G1 X60  E25 F500                       ; Extrude 25mm of filament in a 5cm line. 
G92 E0                                     ; zero the extruded length again 
G1 E-2 F500                                ; Retract a little 
G1 X70 F4000                              ; Quickly wipe away from the filament line
M117
G21 ; set units to millimeters
G90 ; use absolute coordinates
M82 ; use absolute distances for extrusion
G92 E0
; Filament gcode
M107
;LAYER_CHANGE
;Z:0.28
;HEIGHT:0.28
; BEFORE_LAYER_CHANGE 0 @ 0.28mm
G1 E-2 F4800
G92 E0
G1 Z.28 F7200
; AFTER_LAYER_CHANGE 0 @ 0.28mm
G1 X63.271 Y82.91
G1 E2 F4800
M204 S2000
;TYPE:Skirt/Brim
;WIDTH:0.56
G1 F3000
G1 X63.814 Y82.545 E2.03808
G1 X64.318 Y82.346 E2.06961
G1 X64.847 Y82.25 E2.1009
G1 X165.208 Y82.255 E7.9414
G1 X165.753 Y82.369 E7.9738
G1 X166.302 Y82.606 E8.0086
G1 X166.692 Y82.879 E8.0363
G1 X167.102 Y83.285 E8.06988
G1 X167.408 Y83.726 E8.10112
G1 X167.625 Y84.222 E8.13263
G1 X167.75 Y84.848 E8.16978
G1 X167.75 Y134.136 E11.03809
G1 X167.625 Y134.76 E11.07513
G1 X167.458 Y135.164 E11.10057
G1 X167.247 Y135.518 E11.12455
G1 X166.729 Y136.073 E11.16873
G1 X166.186 Y136.439 E11.20684
G1 X165.682 Y136.637 E11.23835
G1 X165.153 Y136.733 E11.26964
G1 X151.748 Y136.723 E12.04974
G1 X151.267 Y136.622 E12.07834
G1 X150.812 Y136.438 E12.1069
G1 X150.271 Y136.073 E12.14488
G1 X149.752 Y135.517 E12.18914
G1 X149.534 Y135.145 E12.21423
G1 X149.322 Y134.584 E12.24913
G1 X149.25 Y134.127 E12.27605
G1 X149.25 Y130.054 E12.51308
G1 X149.375 Y129.431 E12.55006
G1 X149.566 Y128.979 E12.57862
G1 X149.835 Y128.567 E12.60725
G1 X150.278 Y128.111 E12.64425
G1 X150.608 Y127.864 E12.66824
G1 X151.198 Y127.591 E12.70607
G1 X151.618 Y127.482 E12.73132
G1 X154.75 Y127.46 E12.91359
G1 X154.75 Y95.25 E14.78805
G1 X75.25 Y95.25 E19.41455
G1 X75.25 Y134.127 E21.67699
G1 X75.163 Y134.637 E21.7071
G1 X74.966 Y135.147 E21.73892
G1 X74.748 Y135.516 E21.76386
G1 X74.188 Y136.108 E21.81128
G1 X73.687 Y136.439 E21.84622
G1 X73.182 Y136.637 E21.87779
G1 X72.652 Y136.733 E21.90914
G1 X64.691 Y136.717 E22.37243
G1 X64.223 Y136.608 E22.40039
G1 X63.819 Y136.441 E22.42583
G1 X63.465 Y136.231 E22.44978
G1 X62.91 Y135.712 E22.494
G1 X62.545 Y135.169 E22.53208
G1 X62.346 Y134.665 E22.56361
G1 X62.25 Y134.136 E22.5949
G1 X62.25 Y84.848 E25.46321
G1 X62.375 Y84.223 E25.5003
G1 X62.542 Y83.819 E25.52574
G1 X62.753 Y83.465 E25.54972
G1 X63.23 Y82.954 E25.5904
M204 S2500
G1 X63.593 Y83.297 F7200
M204 S2000
G1 F3000
G1 X64.026 Y82.998 E25.62102
G1 X64.437 Y82.832 E25.64682
G1 X64.871 Y82.75 E25.67252
G1 X165.18 Y82.755 E31.51
G1 X165.621 Y82.851 E31.53627
G1 X166.075 Y83.052 E31.56516
G1 X166.383 Y83.272 E31.58719
G1 X166.731 Y83.62 E31.61583
G1 X166.981 Y83.986 E31.64162
G1 X167.154 Y84.393 E31.66736
G1 X167.25 Y84.873 E31.69585
G1 X167.25 Y134.111 E34.56125
G1 X167.154 Y134.591 E34.58974
G1 X167.003 Y134.955 E34.61267
G1 X166.834 Y135.236 E34.63175
G1 X166.386 Y135.709 E34.66966
G1 X165.974 Y135.986 E34.69855
G1 X165.563 Y136.151 E34.72432
G1 X165.129 Y136.233 E34.75002
G1 X151.825 Y136.228 E35.52425
G1 X151.393 Y136.138 E35.54993
G1 X151.027 Y135.986 E35.57299
G1 X150.614 Y135.709 E35.60193
G1 X150.166 Y135.235 E35.63989
G1 X149.993 Y134.947 E35.65944
G1 X149.8 Y134.433 E35.69139
G1 X149.75 Y134.109 E35.71047
G1 X149.75 Y130.079 E35.945
G1 X149.846 Y129.599 E35.97349
G1 X149.998 Y129.232 E35.99661
G1 X150.24 Y128.862 E36.02234
G1 X150.619 Y128.477 E36.05378
G1 X150.882 Y128.283 E36.0728
G1 X151.382 Y128.057 E36.10473
G1 X151.709 Y127.975 E36.12435
G1 X155.25 Y127.958 E36.33042
G1 X155.25 Y94.75 E38.26296
G1 X74.75 Y94.75 E42.94765
G1 X74.75 Y134.107 E45.23803
G1 X74.688 Y134.481 E45.26009
G1 X74.508 Y134.946 E45.28911
G1 X74.334 Y135.235 E45.30874
G1 X73.886 Y135.709 E45.3467
G1 X73.474 Y135.986 E45.37559
G1 X73.063 Y136.151 E45.40136
G1 X72.629 Y136.233 E45.42706
G1 X64.773 Y136.223 E45.88424
G1 X64.393 Y136.138 E45.9069
G1 X64.029 Y135.987 E45.92983
G1 X63.748 Y135.817 E45.94894
G1 X63.275 Y135.369 E45.98685
G1 X62.998 Y134.958 E46.01569
G1 X62.832 Y134.547 E46.04149
G1 X62.75 Y134.112 E46.06725
G1 X62.75 Y84.873 E48.93271
G1 X62.846 Y84.392 E48.96125
G1 X62.997 Y84.029 E48.98413
G1 X63.166 Y83.748 E49.00321
G1 X63.551 Y83.341 E49.03581
M204 S2500
G1 X63.911 Y83.687 F7200
M204 S2000
G1 F3000
G1 X64.241 Y83.45 E49.05945
G1 X64.561 Y83.317 E49.07962
G1 X64.897 Y83.25 E49.09956
G1 X165.152 Y83.255 E54.93389
G1 X165.441 Y83.318 E54.9511
M73 P0 R101
G1 X165.848 Y83.498 E54.977
G1 X166.043 Y83.639 E54.991
G1 X166.36 Y83.956 E55.01709
G1 X166.55 Y84.241 E55.03702
G1 X166.683 Y84.561 E55.05719
G1 X166.75 Y84.897 E55.07713
G1 X166.75 Y134.086 E57.93968
G1 X166.683 Y134.423 E57.95968
G1 X166.55 Y134.744 E57.9799
G1 X166.424 Y134.949 E57.9939
G1 X166.045 Y135.342 E58.02567
G1 X165.759 Y135.534 E58.04572
G1 X165.439 Y135.666 E58.06586
G1 X165.103 Y135.733 E58.0858
G1 X151.897 Y135.733 E58.85432
G1 X151.561 Y135.666 E58.87426
G1 X151.241 Y135.534 E58.8944
G1 X150.955 Y135.342 E58.91445
G1 X150.577 Y134.949 E58.94618
G1 X150.45 Y134.743 E58.96026
G1 X150.288 Y134.326 E58.98629
G1 X150.25 Y134.088 E59.00032
G1 X150.25 Y130.104 E59.23217
G1 X150.317 Y129.767 E59.25217
G1 X150.45 Y129.447 E59.27234
G1 X150.64 Y129.162 E59.29227
G1 X150.957 Y128.846 E59.31832
G1 X151.152 Y128.705 E59.33232
G1 X151.561 Y128.524 E59.35835
G1 X151.795 Y128.468 E59.37235
G1 X155.75 Y128.457 E59.60251
G1 X155.75 Y94.25 E61.59318
G1 X74.25 Y94.25 E66.33607
G1 X74.25 Y134.088 E68.65444
G1 X74.212 Y134.326 E68.66847
G1 X74.05 Y134.743 E68.6945
G1 X73.923 Y134.949 E68.70858
G1 X73.545 Y135.342 E68.74031
G1 X73.259 Y135.534 E68.76036
G1 X72.939 Y135.666 E68.7805
G1 X72.603 Y135.733 E68.80044
G1 X64.85 Y135.728 E69.25163
G1 X64.562 Y135.667 E69.26876
G1 X64.239 Y135.533 E69.28911
G1 X64.034 Y135.407 E69.30311
G1 X63.641 Y135.029 E69.33484
G1 X63.45 Y134.743 E69.35485
G1 X63.317 Y134.423 E69.37502
G1 X63.25 Y134.086 E69.39502
G1 X63.25 Y84.897 E72.25757
G1 X63.317 Y84.561 E72.27751
G1 X63.45 Y84.239 E72.29778
G1 X63.576 Y84.034 E72.31178
G1 X63.869 Y83.73 E72.33635
M204 S2500
G1 X64.225 Y84.079 F7200
M204 S2000
G1 F3000
G1 X64.293 Y84.011 E72.34195
G1 X64.455 Y83.902 E72.35331
G1 X64.729 Y83.788 E72.37058
G1 X64.922 Y83.75 E72.38203
G1 X165.124 Y83.755 E78.21328
G1 X165.266 Y83.787 E78.22175
G1 X165.584 Y83.923 E78.24188
G1 X165.706 Y84.009 E78.25057
G1 X165.989 Y84.292 E78.27386
G1 X166.098 Y84.455 E78.28527
G1 X166.212 Y84.729 E78.30254
G1 X166.25 Y84.922 E78.31399
G1 X166.25 Y134.062 E81.17369
G1 X166.212 Y134.254 E81.18508
G1 X166.097 Y134.532 E81.20259
G1 X166.017 Y134.657 E81.21123
G1 X165.707 Y134.973 E81.23699
G1 X165.545 Y135.081 E81.24832
G1 X165.271 Y135.195 E81.26559
G1 X165.078 Y135.233 E81.27704
G1 X151.922 Y135.233 E82.04265
G1 X151.729 Y135.195 E82.0541
G1 X151.455 Y135.081 E82.07137
G1 X151.293 Y134.973 E82.0827
G1 X150.983 Y134.657 E82.10846
G1 X150.904 Y134.533 E82.11702
G1 X150.776 Y134.212 E82.13713
G1 X150.75 Y134.065 E82.14582
G1 X150.75 Y130.128 E82.37493
G1 X150.788 Y129.936 E82.38632
G1 X150.902 Y129.661 E82.40364
G1 X151.011 Y129.498 E82.41505
G1 X151.294 Y129.215 E82.43834
G1 X151.416 Y129.13 E82.44699
G1 X151.734 Y128.993 E82.46714
G1 X151.876 Y128.961 E82.47561
G1 X156.25 Y128.956 E82.73015
G1 X156.25 Y93.75 E84.77896
G1 X73.75 Y93.75 E89.58004
G1 X73.75 Y134.065 E91.92617
G1 X73.724 Y134.212 E91.93486
G1 X73.596 Y134.533 E91.95497
G1 X73.517 Y134.657 E91.96353
G1 X73.207 Y134.973 E91.98929
G1 X73.045 Y135.081 E92.00062
G1 X72.771 Y135.195 E92.01789
G1 X72.578 Y135.233 E92.02934
G1 X64.922 Y135.233 E92.47488
G1 X64.729 Y135.195 E92.48633
G1 X64.452 Y135.08 E92.50378
G1 X64.326 Y135.001 E92.51243
G1 X64.011 Y134.691 E92.53815
G1 X63.902 Y134.529 E92.54951
G1 X63.788 Y134.254 E92.56683
G1 X63.75 Y134.062 E92.57822
G1 X63.75 Y84.922 E95.43792
G1 X63.788 Y84.729 E95.44937
G1 X63.903 Y84.452 E95.46682
G1 X63.983 Y84.326 E95.47551
G1 X64.183 Y84.122 E95.49214
M204 S2500
G1 X64.535 Y84.474 F7200
M204 S2000
G1 F3000
G1 X64.669 Y84.355 E95.50257
G1 X64.946 Y84.25 E95.51981
G1 X165.054 Y84.25 E101.34559
G1 X165.331 Y84.355 E101.36283
G1 X165.618 Y84.628 E101.38588
G1 X165.75 Y84.946 E101.40592
G1 X165.75 Y134.037 E104.26277
G1 X165.645 Y134.315 E104.28006
G1 X165.372 Y134.601 E104.30307
G1 X165.054 Y134.733 E104.32311
G1 X151.946 Y134.733 E105.08593
G1 X151.628 Y134.601 E105.10597
G1 X151.382 Y134.356 E105.12617
G1 X151.26 Y134.086 E105.14341
G1 X151.25 Y130.153 E105.37229
G1 X151.382 Y129.834 E105.39238
G1 X151.628 Y129.589 E105.41258
G1 X151.946 Y129.457 E105.43262
G1 X156.75 Y129.457 E105.71219
G1 X156.75 Y93.25 E107.81925
G1 X73.25 Y93.25 E112.67853
G1 X73.24 Y134.086 E115.05498
G1 X73.118 Y134.356 E115.07222
G1 X72.872 Y134.601 E115.09242
G1 X72.554 Y134.733 E115.11246
G1 X64.946 Y134.733 E115.55521
G1 X64.669 Y134.629 E115.57243
G1 X64.382 Y134.356 E115.59548
G1 X64.25 Y134.037 E115.61557
G1 X64.25 Y84.946 E118.47242
G1 X64.355 Y84.669 E118.48966
G1 X64.493 Y84.517 E118.50161
M204 S2500
G1 X64.847 Y84.87 F7200
M204 S2000
G1 F3000
G1 X64.929 Y84.788 E118.50836
G1 X65.021 Y84.75 E118.51415
G1 X164.979 Y84.75 E124.3312
G1 X165.071 Y84.788 E124.33699
G1 X165.212 Y84.929 E124.34859
G1 X165.25 Y85.021 E124.35438
G1 X165.25 Y133.963 E127.20256
G1 X165.212 Y134.055 E127.20835
G1 X165.071 Y134.195 E127.21991
G1 X164.979 Y134.233 E127.2257
G1 X152.021 Y134.233 E127.97979
G1 X151.929 Y134.195 E127.98558
G1 X151.788 Y134.055 E127.99714
G1 X151.75 Y133.963 E128.00293
G1 X151.75 Y130.227 E128.22035
G1 X151.788 Y130.135 E128.22614
G1 X151.929 Y129.995 E128.2377
G1 X152.021 Y129.957 E128.24349
G1 X157.25 Y129.957 E128.54779
G1 X157.25 Y92.75 E130.71305
G1 X72.75 Y92.75 E135.63052
G1 X72.75 Y133.963 E138.02891
G1 X72.712 Y134.055 E138.0347
G1 X72.571 Y134.195 E138.04626
G1 X72.479 Y134.233 E138.05205
G1 X65.021 Y134.233 E138.48607
G1 X64.929 Y134.195 E138.49186
G1 X64.788 Y134.055 E138.50342
G1 X64.75 Y133.963 E138.50921
G1 X64.75 Y85.021 E141.35739
G1 X64.804 Y84.913 E141.36442
M204 S2500
G1 E139.96442 F4800
;WIPE_START
G1 F5760
G1 X64.929 Y84.788 E139.82447
G1 X65.021 Y84.75 E139.74567
G1 X65.503 Y84.75 E139.36442
;WIPE_END
G92 E0
G1 X157.9 Y130.606 F7200
G1 E2 F4800
M204 S2000
;TYPE:External perimeter
G1 F3000
G1 X157.9 Y92.1 E4.24085
G1 X72.1 Y92.1 E9.23398
G1 X72.1 Y133.584 E11.64814
G1 X65.4 Y133.584 E12.03805
G1 X65.4 Y85.4 E14.84211
M73 P1 R101
G1 X164.6 Y85.4 E20.61505
G1 X164.6 Y133.584 E23.41911
G1 X152.4 Y133.584 E24.12909
G1 X152.4 Y130.606 E24.30239
G1 X157.84 Y130.606 E24.61897
M204 S2500
G1 X158.295 Y130.541 F7200
G1 X158.4 Y131.106
M204 S2000
;TYPE:Perimeter
G1 F3000
G1 X158.4 Y91.6 E26.91802
G1 X71.6 Y91.6 E31.96934
G1 X71.6 Y133.084 E34.3835
G1 X65.9 Y133.084 E34.71521
G1 X65.9 Y85.9 E37.46108
G1 X164.1 Y85.9 E43.17582
G1 X164.1 Y133.084 E45.92169
G1 X152.9 Y133.084 E46.57347
G1 X152.9 Y131.106 E46.68858
G1 X158.34 Y131.106 E47.00516
M204 S2500
G1 X158.9 Y131.606 F7200
M204 S2000
G1 F3000
G1 X158.9 Y91.1 E49.3624
G1 X71.1 Y91.1 E54.47192
G1 X71.1 Y132.584 E56.88608
G1 X66.4 Y132.584 E57.1596
G1 X66.4 Y86.4 E59.84727
G1 X163.6 Y86.4 E65.50382
G1 X163.6 Y132.584 E68.19149
G1 X153.4 Y132.584 E68.78508
G1 X153.4 Y131.606 E68.84199
G1 X158.84 Y131.606 E69.15857
M204 S2500
G1 X159.15 Y132.095 F7200
M204 S2000
;TYPE:Gap fill
;WIDTH:0.537548
G1 F3000
G1 X153.65 Y132.095 E69.46427
M204 S2500
G1 E68.06427 F4800
;WIPE_START
G1 F5760
G1 X154.408 Y132.095 E67.46427
;WIPE_END
G92 E0
G1 X163.4 Y87.615 F7200
G1 E2 F4800
M204 S2000
;TYPE:Solid infill
;WIDTH:0.562043
G1 F3000
G1 X162.61 Y86.825 E2.06528
G1 X161.9 Y86.825 E2.10677
G1 X163.175 Y88.1 E2.21213
G1 X163.175 Y88.809 E2.25356
G1 X161.191 Y86.825 E2.41751
G1 X160.481 Y86.825 E2.459
G1 X163.175 Y89.519 E2.68162
G1 X163.175 Y90.229 E2.72311
G1 X159.771 Y86.825 E3.0044
G1 X159.061 Y86.825 E3.04589
G1 X163.175 Y90.939 E3.38586
G1 X163.175 Y91.649 E3.42735
G1 X158.351 Y86.825 E3.82599
G1 X157.641 Y86.825 E3.86748
G1 X163.175 Y92.359 E4.32479
G1 X163.175 Y93.069 E4.36628
G1 X156.931 Y86.825 E4.88226
G1 X156.221 Y86.825 E4.92375
G1 X163.175 Y93.779 E5.4984
G1 X163.175 Y94.488 E5.53983
G1 X155.512 Y86.825 E6.17307
G1 X154.802 Y86.825 E6.21456
G1 X158.652 Y90.675 E6.53271
G1 X159.325 Y90.675 E6.57204
G1 X159.325 Y91.348 E6.61137
G1 X163.175 Y95.198 E6.92952
G1 X163.175 Y95.908 E6.97101
G1 X159.325 Y92.058 E7.28916
G1 X159.325 Y92.768 E7.33065
G1 X163.175 Y96.618 E7.6488
G1 X163.175 Y97.328 E7.69029
G1 X159.325 Y93.477 E8.00848
G1 X159.325 Y94.187 E8.04997
G1 X163.175 Y98.038 E8.36816
G1 X163.175 Y98.748 E8.40965
G1 X159.325 Y94.897 E8.72784
G1 X159.325 Y95.607 E8.76933
G1 X163.175 Y99.458 E9.08752
G1 X163.175 Y100.167 E9.12895
G1 X159.325 Y96.317 E9.4471
G1 X159.325 Y97.027 E9.48859
G1 X163.175 Y100.877 E9.80674
G1 X163.175 Y101.587 E9.84823
G1 X159.325 Y97.737 E10.16638
G1 X159.325 Y98.447 E10.20787
G1 X163.175 Y102.297 E10.52602
G1 X163.175 Y103.007 E10.56751
G1 X159.325 Y99.156 E10.8857
G1 X159.325 Y99.866 E10.92719
G1 X163.175 Y103.717 E11.24538
G1 X163.175 Y104.427 E11.28687
G1 X159.325 Y100.576 E11.60506
G1 X159.325 Y101.286 E11.64655
G1 X163.175 Y105.137 E11.96474
G1 X163.175 Y105.846 E12.00617
G1 X159.325 Y101.996 E12.32432
G1 X159.325 Y102.706 E12.36581
G1 X163.175 Y106.556 E12.68396
G1 X163.175 Y107.266 E12.72545
M73 P1 R100
G1 X159.325 Y103.416 E13.0436
G1 X159.325 Y104.125 E13.08503
G1 X163.175 Y107.976 E13.40322
G1 X163.175 Y108.686 E13.44471
G1 X159.325 Y104.835 E13.7629
G1 X159.325 Y105.545 E13.80439
G1 X163.175 Y109.396 E14.12258
G1 X163.175 Y110.106 E14.16407
G1 X159.325 Y106.255 E14.48226
G1 X159.325 Y106.965 E14.52375
G1 X163.175 Y110.815 E14.8419
G1 X163.175 Y111.525 E14.88339
G1 X159.325 Y107.675 E15.20154
G1 X159.325 Y108.385 E15.24303
G1 X163.175 Y112.235 E15.56118
G1 X163.175 Y112.945 E15.60267
G1 X159.325 Y109.095 E15.92082
G1 X159.325 Y109.804 E15.96225
G1 X163.175 Y113.655 E16.28044
G1 X163.175 Y114.365 E16.32193
G1 X159.325 Y110.514 E16.64012
G1 X159.325 Y111.224 E16.68161
G1 X163.175 Y115.075 E16.9998
G1 X163.175 Y115.785 E17.04129
G1 X159.325 Y111.934 E17.35948
G1 X159.325 Y112.644 E17.40097
G1 X163.175 Y116.494 E17.71912
G1 X163.175 Y117.204 E17.76061
G1 X159.325 Y113.354 E18.07876
G1 X159.325 Y114.064 E18.12025
G1 X163.175 Y117.914 E18.4384
G1 X163.175 Y118.624 E18.47989
G1 X159.325 Y114.774 E18.79804
G1 X159.325 Y115.483 E18.83947
G1 X163.175 Y119.334 E19.15766
G1 X163.175 Y120.044 E19.19915
G1 X159.325 Y116.193 E19.51734
G1 X159.325 Y116.903 E19.55883
G1 X163.175 Y120.754 E19.87702
G1 X163.175 Y121.464 E19.91851
G1 X159.325 Y117.613 E20.2367
G1 X159.325 Y118.323 E20.27819
G1 X163.175 Y122.173 E20.59634
G1 X163.175 Y122.883 E20.63783
G1 X159.325 Y119.033 E20.95598
G1 X159.325 Y119.743 E20.99747
G1 X163.175 Y123.593 E21.31562
G1 X163.175 Y124.303 E21.35711
G1 X159.325 Y120.453 E21.67526
G1 X159.325 Y121.162 E21.71669
G1 X163.175 Y125.013 E22.03488
G1 X163.175 Y125.723 E22.07637
G1 X159.325 Y121.872 E22.39456
G1 X159.325 Y122.582 E22.43605
G1 X163.175 Y126.433 E22.75424
