; generated by AnycubicSlicer 1.1.1 on 2024-08-14 at 03:02:09 UTC

; 

; external perimeters extrusion width = 0.45mm
; perimeters extrusion width = 0.40mm
; infill extrusion width = 0.45mm
; solid infill extrusion width = 0.50mm
; top infill extrusion width = 0.45mm
; first layer extrusion width = 0.56mm

M73 P0 R212
M201 X2500 Y2500 Z800 E2500 ; sets maximum accelerations, mm/sec^2
M203 X300 Y250 Z8 E80 ; sets maximum feedrates, mm / sec
M204 P2500 R2500 T2500 ; sets acceleration (P, T) and retract acceleration (R), mm/sec^2
M205 X15.00 Y10.00 Z2.00 E10.00 ; sets the jerk limits, mm/sec
M205 S0 T0 ; sets the minimum extruding and travel feed rate, mm/sec
M107
;TYPE:Custom
G90 ; use absolute coordinates
M83 ; extruder relative mode
M104 S195 ; set extruder temp
M140 S40 ; set bed temp
M190 S40 ; wait for bed temp
M109 S195 ; wait for extruder temp
G28                                        ; move X/Y/Z to min endstops
G1 Z0.28                                   ; lift nozzle a bit 
G92 E0 
G1 Y3 F1800                                    ; zero the extruded length 
G1 X60  E25 F500                       ; Extrude 25mm of filament in a 5cm line. 
G92 E0                                     ; zero the extruded length again 
G1 E-2 F500                                ; Retract a little 
G1 X70 F4000                              ; Quickly wipe away from the filament line
M117
G21 ; set units to millimeters
G90 ; use absolute coordinates
M82 ; use absolute distances for extrusion
G92 E0
; Filament gcode
M107
;LAYER_CHANGE
;Z:0.28
;HEIGHT:0.28
; BEFORE_LAYER_CHANGE 0 @ 0.28mm
G1 E-2 F4800
G92 E0
G1 Z.28 F7200
; AFTER_LAYER_CHANGE 0 @ 0.28mm
G1 X41.314 Y82.545
G1 E2 F4800
M204 S2000
;TYPE:Skirt/Brim
;WIDTH:0.56
G1 F3000
G1 X41.818 Y82.346 E2.03153
G1 X42.347 Y82.25 E2.06282
G1 X187.708 Y82.255 E10.52209
G1 X188.253 Y82.369 E10.55449
G1 X188.802 Y82.606 E10.58929
G1 X189.192 Y82.879 E10.61699
G1 X189.602 Y83.285 E10.65057
G1 X189.908 Y83.726 E10.68181
G1 X190.125 Y84.222 E10.71332
G1 X190.25 Y84.848 E10.75047
G1 X190.25 Y145.152 E14.25986
G1 X190.125 Y145.777 E14.29695
G1 X189.958 Y146.181 E14.32239
G1 X189.747 Y146.535 E14.34637
G1 X189.229 Y147.09 E14.39055
G1 X188.686 Y147.455 E14.42863
G1 X188.182 Y147.654 E14.46016
G1 X187.653 Y147.75 E14.49145
G1 X42.348 Y147.75 E22.94746
G1 X41.723 Y147.625 E22.98455
G1 X41.319 Y147.458 E23.00999
G1 X40.965 Y147.247 E23.03397
G1 X40.41 Y146.729 E23.07815
G1 X40.045 Y146.186 E23.11623
G1 X39.846 Y145.682 E23.14776
G1 X39.75 Y145.153 E23.17905
G1 X39.75 Y84.848 E26.6885
G1 X39.875 Y84.223 E26.72559
G1 X40.042 Y83.819 E26.75103
G1 X40.253 Y83.465 E26.77501
G1 X40.771 Y82.91 E26.81919
G1 X41.264 Y82.578 E26.85378
M204 S2500
G1 X41.526 Y82.998 F7200
M204 S2000
G1 F3000
G1 X41.937 Y82.832 E26.87958
G1 X42.371 Y82.75 E26.90528
G1 X187.68 Y82.755 E35.36153
G1 X188.121 Y82.851 E35.3878
G1 X188.575 Y83.052 E35.41669
G1 X188.883 Y83.272 E35.43872
G1 X189.231 Y83.62 E35.46736
G1 X189.481 Y83.986 E35.49315
G1 X189.654 Y84.393 E35.51889
G1 X189.75 Y84.873 E35.54738
G1 X189.75 Y145.127 E39.05386
G1 X189.654 Y145.608 E39.0824
G1 X189.503 Y145.971 E39.10528
G1 X189.334 Y146.252 E39.12436
G1 X188.886 Y146.725 E39.16227
G1 X188.474 Y147.002 E39.19116
G1 X188.063 Y147.168 E39.21696
G1 X187.629 Y147.25 E39.24266
G1 X42.373 Y147.25 E47.69582
G1 X41.892 Y147.154 E47.72436
G1 X41.529 Y147.003 E47.74724
G1 X41.248 Y146.834 E47.76632
G1 X40.775 Y146.386 E47.80423
G1 X40.498 Y145.974 E47.83312
G1 X40.332 Y145.563 E47.85892
G1 X40.25 Y145.129 E47.88462
G1 X40.25 Y84.873 E51.39121
G1 X40.346 Y84.392 E51.41975
G1 X40.497 Y84.029 E51.44263
G1 X40.666 Y83.748 E51.46171
G1 X41.114 Y83.275 E51.49962
G1 X41.476 Y83.031 E51.52503
M204 S2500
G1 X41.741 Y83.45 F7200
M204 S2000
G1 F3000
G1 X42.061 Y83.317 E51.5452
G1 X42.397 Y83.25 E51.56514
G1 X187.652 Y83.255 E60.01825
G1 X187.941 Y83.318 E60.03546
G1 X188.348 Y83.498 E60.06136
G1 X188.543 Y83.639 E60.07536
G1 X188.86 Y83.956 E60.10145
G1 X189.05 Y84.241 E60.12138
G1 X189.183 Y84.561 E60.14155
G1 X189.25 Y84.897 E60.16149
G1 X189.25 Y145.103 E63.66517
G1 X189.183 Y145.439 E63.68511
M73 P0 R211
G1 X189.05 Y145.761 E63.70538
G1 X188.924 Y145.966 E63.71938
G1 X188.545 Y146.359 E63.75115
G1 X188.259 Y146.55 E63.77116
G1 X187.939 Y146.683 E63.79133
G1 X187.603 Y146.75 E63.81127
G1 X42.397 Y146.75 E72.26152
G1 X42.061 Y146.683 E72.28146
G1 X41.739 Y146.55 E72.30173
G1 X41.534 Y146.424 E72.31573
G1 X41.141 Y146.045 E72.3475
G1 X40.95 Y145.759 E72.36751
G1 X40.817 Y145.439 E72.38768
G1 X40.75 Y145.103 E72.40762
G1 X40.75 Y84.897 E75.9113
G1 X40.817 Y84.561 E75.93124
G1 X40.95 Y84.239 E75.95151
G1 X41.076 Y84.034 E75.96551
G1 X41.455 Y83.641 E75.99728
G1 X41.691 Y83.483 E76.01381
M204 S2500
G1 X41.955 Y83.902 F7200
M204 S2000
G1 F3000
G1 X42.229 Y83.788 E76.03108
G1 X42.422 Y83.75 E76.04253
G1 X187.624 Y83.755 E84.49255
G1 X187.766 Y83.787 E84.50102
G1 X188.084 Y83.923 E84.52115
G1 X188.206 Y84.009 E84.52984
G1 X188.489 Y84.292 E84.55313
G1 X188.598 Y84.455 E84.56454
G1 X188.712 Y84.729 E84.58181
G1 X188.75 Y84.922 E84.59326
G1 X188.75 Y145.078 E88.09403
G1 X188.712 Y145.271 E88.10548
G1 X188.597 Y145.548 E88.12293
G1 X188.517 Y145.674 E88.13162
G1 X188.207 Y145.989 E88.15734
G1 X188.045 Y146.098 E88.1687
G1 X187.771 Y146.212 E88.18597
G1 X187.578 Y146.25 E88.19742
G1 X42.422 Y146.25 E96.64476
G1 X42.229 Y146.212 E96.65621
G1 X41.952 Y146.097 E96.67366
G1 X41.826 Y146.017 E96.68235
G1 X41.511 Y145.707 E96.70807
G1 X41.402 Y145.545 E96.71943
G1 X41.288 Y145.271 E96.7367
G1 X41.25 Y145.078 E96.74815
G1 X41.25 Y84.922 E100.24892
G1 X41.288 Y84.729 E100.26037
G1 X41.403 Y84.452 E100.27782
G1 X41.483 Y84.326 E100.28651
G1 X41.793 Y84.011 E100.31223
G1 X41.905 Y83.936 E100.32007
M204 S2500
G1 X42.169 Y84.355 F7200
M204 S2000
G1 F3000
G1 X42.446 Y84.25 E100.33731
G1 X187.554 Y84.25 E108.78186
G1 X187.831 Y84.355 E108.7991
G1 X188.118 Y84.628 E108.82215
G1 X188.25 Y84.946 E108.84219
G1 X188.25 Y145.054 E112.34017
G1 X188.145 Y145.331 E112.35741
G1 X187.872 Y145.618 E112.38046
G1 X187.554 Y145.75 E112.4005
G1 X42.446 Y145.75 E120.84505
G1 X42.169 Y145.645 E120.86229
G1 X41.882 Y145.372 E120.88534
G1 X41.75 Y145.054 E120.90538
G1 X41.75 Y84.946 E124.40336
G1 X41.855 Y84.669 E124.4206
G1 X42.12 Y84.39 E124.44299
M204 S2500
G1 X42.429 Y84.788 F7200
M204 S2000
G1 F3000
G1 X42.521 Y84.75 E124.44878
G1 X187.479 Y84.75 E132.8846
G1 X187.571 Y84.788 E132.89039
G1 X187.712 Y84.929 E132.90199
G1 X187.75 Y85.021 E132.90778
G1 X187.75 Y144.979 E136.39703
G1 X187.712 Y145.071 E136.40282
G1 X187.571 Y145.212 E136.41442
G1 X187.479 Y145.25 E136.42021
G1 X42.521 Y145.25 E144.85603
G1 X42.429 Y145.212 E144.86182
G1 X42.288 Y145.071 E144.87342
G1 X42.25 Y144.979 E144.87921
G1 X42.25 Y85.021 E148.36846
G1 X42.288 Y84.929 E148.37425
G1 X42.386 Y84.831 E148.38232
M204 S2500
G1 E146.98232 F4800
;WIPE_START
G1 F5760
G1 X42.521 Y84.75 E146.85768
G1 X43.121 Y84.75 E146.38232
;WIPE_END
G92 E0
G1 X187.1 Y144.6 F7200
G1 E2 F4800
M204 S2000
;TYPE:External perimeter
G1 F3000
G1 X42.9 Y144.6 E10.39171
G1 X42.9 Y85.4 E13.83685
G1 X187.1 Y85.4 E22.22856
G1 X187.1 Y144.54 E25.67021
M204 S2500
G1 X186.703 Y144.548 F7200
G1 X186.6 Y144.1
M204 S2000
;TYPE:Perimeter
G1 F3000
G1 X43.4 Y144.1 E34.00372
G1 X43.4 Y85.9 E37.39067
G1 X186.6 Y85.9 E45.72418
G1 X186.6 Y144.04 E49.10763
M204 S2500
G1 X186.1 Y143.6 F7200
M204 S2000
G1 F3000
G1 X43.9 Y143.6 E57.38295
G1 X43.9 Y86.4 E60.7117
G1 X186.1 Y86.4 E68.98702
G1 X186.1 Y143.54 E72.31228
M204 S2500
G1 E70.91228 F4800
;WIPE_START
G1 F5760
G1 X185.342 Y143.54 E70.31228
;WIPE_END
G92 E0
G1 X184.889 Y86.6 F7200
G1 E2 F4800
M204 S2000
;TYPE:Solid infill
;WIDTH:0.560098
G1 F3000
G1 X185.675 Y87.386 E2.0647
G1 X185.675 Y88.093 E2.10585
G1 X184.407 Y86.825 E2.21023
G1 X183.7 Y86.825 E2.25138
G1 X185.675 Y88.8 E2.41395
G1 X185.675 Y89.507 E2.4551
G1 X182.993 Y86.825 E2.67587
G1 X182.286 Y86.825 E2.71702
G1 X185.675 Y90.214 E2.99599
G1 X185.675 Y90.921 E3.03714
G1 X181.579 Y86.825 E3.37431
G1 X180.872 Y86.825 E3.41546
G1 X185.675 Y91.628 E3.81082
G1 X185.675 Y92.335 E3.85197
G1 X180.165 Y86.825 E4.30553
G1 X179.457 Y86.825 E4.34674
G1 X185.675 Y93.043 E4.85858
G1 X185.675 Y93.75 E4.89973
G1 X178.75 Y86.825 E5.46977
G1 X178.043 Y86.825 E5.51092
G1 X185.675 Y94.457 E6.13916
G1 X185.675 Y95.164 E6.18031
G1 X177.336 Y86.825 E6.86674
G1 X176.629 Y86.825 E6.90789
G1 X185.675 Y95.871 E7.65252
G1 X185.675 Y96.578 E7.69367
G1 X175.922 Y86.825 E8.4965
G1 X175.215 Y86.825 E8.53765
G1 X185.675 Y97.285 E9.39868
G1 X185.675 Y97.992 E9.43983
G1 X174.508 Y86.825 E10.35905
G1 X173.801 Y86.825 E10.4002
M73 P0 R210
G1 X185.675 Y98.699 E11.37762
G1 X185.675 Y99.407 E11.41883
G1 X173.093 Y86.825 E12.45453
G1 X172.386 Y86.825 E12.49568
G1 X185.675 Y100.114 E13.58958
G1 X185.675 Y100.821 E13.63073
G1 X171.679 Y86.825 E14.78283
G1 X170.972 Y86.825 E14.82398
G1 X185.675 Y101.528 E16.03427
G1 X185.675 Y102.235 E16.07542
G1 X170.265 Y86.825 E17.34391
G1 X169.558 Y86.825 E17.38506
G1 X185.675 Y102.942 E18.71175
G1 X185.675 Y103.649 E18.7529
G1 X168.851 Y86.825 E20.13779
G1 X168.144 Y86.825 E20.17894
G1 X185.675 Y104.356 E21.62202
G1 X185.675 Y105.064 E21.66323
G1 X167.436 Y86.825 E23.16459
G1 X166.729 Y86.825 E23.20574
G1 X185.675 Y105.771 E24.7653
G1 X185.675 Y106.478 E24.80645
G1 X166.022 Y86.825 E26.42421
G1 X165.315 Y86.825 E26.46536
G1 X185.675 Y107.185 E28.14132
G1 X185.675 Y107.892 E28.18247
G1 X164.608 Y86.825 E29.91662
G1 X163.901 Y86.825 E29.95777
G1 X185.675 Y108.599 E31.75012
G1 X185.675 Y109.306 E31.79127
G1 X163.194 Y86.825 E33.64182
G1 X162.487 Y86.825 E33.68297
G1 X185.675 Y110.013 E35.59172
G1 X185.675 Y110.721 E35.63293
G1 X161.779 Y86.825 E37.59996
G1 X161.072 Y86.825 E37.64111
G1 X185.675 Y111.428 E39.66633
G1 X185.675 Y112.135 E39.70748
G1 X160.365 Y86.825 E41.7909
G1 X159.658 Y86.825 E41.83205
G1 X185.675 Y112.842 E43.97367
G1 X185.675 Y113.549 E44.01482
G1 X158.951 Y86.825 E46.21464
G1 X158.244 Y86.825 E46.25579
G1 X185.675 Y114.256 E48.5138
G1 X185.675 Y114.963 E48.55495
G1 X157.537 Y86.825 E50.87116
G1 X156.83 Y86.825 E50.91231
G1 X185.675 Y115.67 E53.28672
G1 X185.675 Y116.377 E53.32787
G1 X156.123 Y86.825 E55.76048
G1 X155.415 Y86.825 E55.80169
G1 X185.675 Y117.085 E58.29258
G1 X185.675 Y117.792 E58.33373
G1 X154.708 Y86.825 E60.88281
G1 X154.001 Y86.825 E60.92396
G1 X185.675 Y118.499 E63.53124
G1 X185.675 Y119.206 E63.57239
G1 X153.294 Y86.825 E66.23787
G1 X152.587 Y86.825 E66.27902
G1 X185.675 Y119.913 E69.0027
G1 X185.675 Y120.62 E69.04385
G1 X151.88 Y86.825 E71.82572
G1 X151.173 Y86.825 E71.86687
G1 X185.675 Y121.327 E74.70694
G1 X185.675 Y122.034 E74.74809
G1 X150.466 Y86.825 E77.64636
G1 X149.758 Y86.825 E77.68757
G1 X185.675 Y122.742 E80.64412
G1 X185.675 Y123.449 E80.68527
G1 X149.051 Y86.825 E83.70002
G1 X148.344 Y86.825 E83.74117
G1 X185.675 Y124.156 E86.81411
G1 X185.675 Y124.863 E86.85526
G1 X147.637 Y86.825 E89.9864
G1 X146.93 Y86.825 E90.02755
G1 X185.675 Y125.57 E93.21689
G1 X185.675 Y126.277 E93.25804
G1 X146.223 Y86.825 E96.50558
G1 X145.516 Y86.825 E96.54673
G1 X185.675 Y126.984 E99.85246
G1 X185.675 Y127.691 E99.89361
G1 X144.809 Y86.825 E103.25754
G1 X144.101 Y86.825 E103.29875
G1 X185.675 Y128.399 E106.72096
G1 X185.675 Y129.106 E106.76211
G1 X143.394 Y86.825 E110.24252
G1 X142.687 Y86.825 E110.28367
G1 X185.675 Y129.813 E113.82228
G1 X185.675 Y130.52 E113.86343
G1 X141.98 Y86.825 E117.46023
G1 X141.273 Y86.825 E117.50138
G1 X185.675 Y131.227 E121.15638
G1 X185.675 Y131.934 E121.19753
M73 P1 R210
G1 X140.566 Y86.825 E124.91073
G1 X139.859 Y86.825 E124.95188
G1 X185.675 Y132.641 E128.72328
G1 X185.675 Y133.348 E128.76443
G1 X139.152 Y86.825 E132.59402
G1 X138.445 Y86.825 E132.63517
G1 X185.675 Y134.055 E136.52296
G1 X185.675 Y134.763 E136.56417
G1 X137.737 Y86.825 E140.51024
G1 X137.03 Y86.825 E140.55139
G1 X185.675 Y135.47 E144.55566
G1 X185.675 Y136.177 E144.59681
G1 X136.323 Y86.825 E148.65927
G1 X135.616 Y86.825 E148.70042
G1 X185.675 Y136.884 E152.82108
G1 X185.675 Y137.591 E152.86223
G1 X134.909 Y86.825 E157.04109
G1 X134.202 Y86.825 E157.08224
G1 X185.675 Y138.298 E161.3193
G1 X185.675 Y139.005 E161.36045
G1 X133.495 Y86.825 E165.6557
G1 X132.788 Y86.825 E165.69685
G1 X185.675 Y139.712 E170.0503
G1 X185.675 Y140.42 E170.09151
G1 X132.08 Y86.825 E174.50324
G1 X131.373 Y86.825 E174.54439
G1 X185.675 Y141.127 E179.01432
G1 X185.675 Y141.834 E179.05547
G1 X130.666 Y86.825 E183.5836
G1 X129.959 Y86.825 E183.62475
M73 P1 R209
G1 X185.675 Y142.541 E188.21107
G1 X185.675 Y143.175 E188.24797
G1 X185.602 Y143.175 E188.25222
G1 X129.252 Y86.825 E192.89073
G1 X128.545 Y86.825 E192.93188
G1 X184.895 Y143.175 E197.57039
G1 X184.188 Y143.175 E197.61154
G1 X127.838 Y86.825 E202.25005
G1 X127.131 Y86.825 E202.2912
G1 X183.481 Y143.175 E206.92971
G1 X182.774 Y143.175 E206.97086
G1 X126.423 Y86.825 E211.60941
G1 X125.716 Y86.825 E211.65056
G1 X182.067 Y143.175 E216.28911
G1 X181.36 Y143.175 E216.33026
G1 X125.009 Y86.825 E220.96881
G1 X124.302 Y86.825 E221.00996
G1 X180.653 Y143.175 E225.64851
G1 X179.946 Y143.175 E225.68966
G1 X123.595 Y86.825 E230.32821
G1 X122.888 Y86.825 E230.36936
G1 X179.238 Y143.175 E235.00787
G1 X178.531 Y143.175 E235.04902
G1 X122.181 Y86.825 E239.68753
G1 X121.474 Y86.825 E239.72868
G1 X177.824 Y143.175 E244.36719
G1 X177.117 Y143.175 E244.40834
G1 X120.767 Y86.825 E249.04685
G1 X120.059 Y86.825 E249.08806
G1 X176.41 Y143.175 E253.72661
G1 X175.703 Y143.175 E253.76776
G1 X119.352 Y86.825 E258.40631
G1 X118.645 Y86.825 E258.44746
G1 X174.996 Y143.175 E263.08601
G1 X174.289 Y143.175 E263.12716
G1 X117.938 Y86.825 E267.76571
G1 X117.231 Y86.825 E267.80686
G1 X173.581 Y143.175 E272.44537
G1 X172.874 Y143.175 E272.48652
G1 X116.524 Y86.825 E277.12503
G1 X115.817 Y86.825 E277.16618
G1 X172.167 Y143.175 E281.80469
G1 X171.46 Y143.175 E281.84584
G1 X115.11 Y86.825 E286.48435
G1 X114.402 Y86.825 E286.52556
G1 X170.753 Y143.175 E291.16411
G1 X170.046 Y143.175 E291.20526
G1 X113.695 Y86.825 E295.84381
G1 X112.988 Y86.825 E295.88496
G1 X169.339 Y143.175 E300.52351
G1 X168.632 Y143.175 E300.56466
G1 X112.281 Y86.825 E305.20321
G1 X111.574 Y86.825 E305.24436
G1 X167.924 Y143.175 E309.88287
G1 X167.217 Y143.175 E309.92402
G1 X110.867 Y86.825 E314.56253
G1 X110.16 Y86.825 E314.60368
G1 X166.51 Y143.175 E319.24219
G1 X165.803 Y143.175 E319.28334
G1 X109.453 Y86.825 E323.92185
G1 X108.746 Y86.825 E323.963
G1 X165.096 Y143.175 E328.60151
G1 X164.389 Y143.175 E328.64266
G1 X108.038 Y86.825 E333.28121
G1 X107.331 Y86.825 E333.32236
G1 X163.682 Y143.175 E337.96091
G1 X162.975 Y143.175 E338.00206
G1 X106.624 Y86.825 E342.64061
G1 X105.917 Y86.825 E342.68176
G1 X162.268 Y143.175 E347.32031
G1 X161.56 Y143.175 E347.36152
G1 X105.21 Y86.825 E352.00003
G1 X104.503 Y86.825 E352.04118
G1 X160.853 Y143.175 E356.67969
G1 X160.146 Y143.175 E356.72084
M73 P1 R208
G1 X103.796 Y86.825 E361.35935
G1 X103.089 Y86.825 E361.4005
G1 X159.439 Y143.175 E366.03901
G1 X158.732 Y143.175 E366.08016
G1 X102.381 Y86.825 E370.71871
G1 X101.674 Y86.825 E370.75986
G1 X158.025 Y143.175 E375.39841
G1 X157.318 Y143.175 E375.43956
G1 X100.967 Y86.825 E380.07811
G1 X100.26 Y86.825 E380.11926
G1 X156.611 Y143.175 E384.75781
G1 X155.903 Y143.175 E384.79902
G1 X99.553 Y86.825 E389.43753
G1 X98.846 Y86.825 E389.47868
G1 X155.196 Y143.175 E394.11719
G1 X154.489 Y143.175 E394.15834
G1 X98.139 Y86.825 E398.79685
G1 X97.432 Y86.825 E398.838
G1 X153.782 Y143.175 E403.47651
G1 X153.075 Y143.175 E403.51766
G1 X96.724 Y86.825 E408.15621
G1 X96.017 Y86.825 E408.19736
G1 X152.368 Y143.175 E412.83591
G1 X151.661 Y143.175 E412.87706
G1 X95.31 Y86.825 E417.51561
G1 X94.603 Y86.825 E417.55676
G1 X150.954 Y143.175 E422.19531
G1 X150.247 Y143.175 E422.23646
G1 X93.896 Y86.825 E426.87501
G1 X93.189 Y86.825 E426.91616
G1 X149.539 Y143.175 E431.55467
G1 X148.832 Y143.175 E431.59582
G1 X92.482 Y86.825 E436.23433
G1 X91.775 Y86.825 E436.27548
G1 X148.125 Y143.175 E440.91399
G1 X147.418 Y143.175 E440.95514
G1 X91.068 Y86.825 E445.59365
G1 X90.36 Y86.825 E445.63486
G1 X146.711 Y143.175 E450.27341
