; generated by AnycubicSlicer 1.1.1 on 2024-08-20 at 00:44:13 UTC

; 

; external perimeters extrusion width = 0.45mm
; perimeters extrusion width = 0.40mm
; infill extrusion width = 0.45mm
; solid infill extrusion width = 0.50mm
; top infill extrusion width = 0.45mm
; first layer extrusion width = 0.56mm

M73 P0 R6
M201 X2500 Y2500 Z800 E2500 ; sets maximum accelerations, mm/sec^2
M203 X300 Y250 Z8 E80 ; sets maximum feedrates, mm / sec
M204 P2500 R2500 T2500 ; sets acceleration (P, T) and retract acceleration (R), mm/sec^2
M205 X15.00 Y10.00 Z2.00 E10.00 ; sets the jerk limits, mm/sec
M205 S0 T0 ; sets the minimum extruding and travel feed rate, mm/sec
M107
;TYPE:Custom
G90 ; use absolute coordinates
M83 ; extruder relative mode
M104 S195 ; set extruder temp
M140 S40 ; set bed temp
M190 S40 ; wait for bed temp
M109 S195 ; wait for extruder temp
G28                                        ; move X/Y/Z to min endstops
G1 Z0.28                                   ; lift nozzle a bit 
G92 E0 
G1 Y3 F1800                                    ; zero the extruded length 
G1 X60  E25 F500                       ; Extrude 25mm of filament in a 5cm line. 
G92 E0                                     ; zero the extruded length again 
G1 E-2 F500                                ; Retract a little 
M73 P1 R6
G1 X70 F4000                              ; Quickly wipe away from the filament line
M117
G21 ; set units to millimeters
G90 ; use absolute coordinates
M82 ; use absolute distances for extrusion
G92 E0
; Filament gcode
M107
;LAYER_CHANGE
;Z:0.28
;HEIGHT:0.28
; BEFORE_LAYER_CHANGE 0 @ 0.28mm
G1 E-2 F4800
G92 E0
M73 P2 R6
G1 Z.28 F7200
; AFTER_LAYER_CHANGE 0 @ 0.28mm
G1 X93.28 Y102.902
G1 E2 F4800
M204 S2000
;TYPE:Skirt/Brim
;WIDTH:0.56
G1 F3000
G1 X93.664 Y102.625 E2.02755
G1 X94.211 Y102.38 E2.06243
G1 X94.848 Y102.25 E2.10026
G1 X135.208 Y102.255 E4.44901
G1 X135.753 Y102.369 E4.48141
G1 X136.302 Y102.606 E4.51621
G1 X136.692 Y102.879 E4.54391
G1 X137.102 Y103.285 E4.57749
G1 X137.408 Y103.726 E4.60873
G1 X137.625 Y104.222 E4.64024
G1 X137.75 Y104.848 E4.67739
G1 X137.75 Y125.152 E5.85898
G1 X137.618 Y125.795 E5.89718
G1 X137.342 Y126.392 E5.93546
G1 X137.096 Y126.722 E5.95941
G1 X136.72 Y127.098 E5.99035
G1 X136.336 Y127.375 E6.0179
G1 X135.789 Y127.62 E6.05278
G1 X135.152 Y127.75 E6.09061
G1 X94.848 Y127.75 E8.4361
G1 X94.205 Y127.618 E8.4743
G1 X93.608 Y127.342 E8.51258
G1 X93.278 Y127.096 E8.53653
G1 X92.902 Y126.72 E8.56747
G1 X92.625 Y126.336 E8.59502
G1 X92.38 Y125.789 E8.6299
G1 X92.25 Y125.152 E8.66773
G1 X92.25 Y104.848 E9.84932
G1 X92.382 Y104.205 E9.88752
G1 X92.658 Y103.608 E9.9258
G1 X92.904 Y103.278 E9.94975
G1 X93.238 Y102.944 E9.97724
M204 S2500
G1 X93.591 Y103.298 F7200
M204 S2000
G1 F3000
G1 X93.931 Y103.048 E10.0018
G1 X94.386 Y102.848 E10.03072
G1 X94.873 Y102.75 E10.05963
G1 X135.18 Y102.755 E12.40529
G1 X135.621 Y102.851 E12.43156
M73 P3 R6
G1 X136.075 Y103.052 E12.46045
G1 X136.383 Y103.272 E12.48248
G1 X136.731 Y103.62 E12.51112
G1 X136.981 Y103.986 E12.53691
G1 X137.154 Y104.393 E12.56265
G1 X137.25 Y104.873 E12.59114
G1 X137.25 Y125.127 E13.76982
G1 X137.151 Y125.616 E13.79885
G1 X136.923 Y126.118 E13.83094
G1 X136.729 Y126.382 E13.85001
G1 X136.382 Y126.729 E13.87857
G1 X136.069 Y126.952 E13.90094
G1 X135.614 Y127.152 E13.92986
G1 X135.127 Y127.25 E13.95877
G1 X94.873 Y127.25 E16.30135
G1 X94.384 Y127.151 E16.33038
G1 X93.882 Y126.923 E16.36247
G1 X93.618 Y126.729 E16.38154
G1 X93.271 Y126.382 E16.4101
G1 X93.048 Y126.069 E16.43247
G1 X92.848 Y125.614 E16.46139
G1 X92.75 Y125.127 E16.4903
G1 X92.75 Y104.873 E17.66898
G1 X92.849 Y104.384 E17.69801
G1 X93.077 Y103.882 E17.7301
G1 X93.271 Y103.618 E17.74917
G1 X93.549 Y103.34 E17.77205
M204 S2500
G1 X93.902 Y103.694 F7200
M204 S2000
G1 F3000
G1 X94.194 Y103.474 E17.79333
G1 X94.558 Y103.318 E17.81638
G1 X94.897 Y103.25 E17.8365
G1 X135.152 Y103.255 E20.17914
G1 X135.441 Y103.318 E20.19635
G1 X135.848 Y103.498 E20.22225
G1 X136.043 Y103.639 E20.23625
G1 X136.36 Y103.956 E20.26234
G1 X136.55 Y104.241 E20.28227
G1 X136.683 Y104.561 E20.30244
G1 X136.75 Y104.897 E20.32238
G1 X136.75 Y125.103 E21.49827
G1 X136.682 Y125.441 E21.51833
M73 P4 R6
G1 X136.502 Y125.848 E21.54423
G1 X136.361 Y126.043 E21.55823
G1 X136.045 Y126.359 E21.58424
G1 X135.806 Y126.526 E21.60121
G1 X135.442 Y126.682 E21.62426
G1 X135.103 Y126.75 E21.64438
G1 X94.897 Y126.75 E23.98417
G1 X94.559 Y126.682 E24.00423
G1 X94.152 Y126.502 E24.03013
G1 X93.957 Y126.361 E24.04413
G1 X93.641 Y126.045 E24.07014
G1 X93.474 Y125.806 E24.08711
G1 X93.318 Y125.442 E24.11016
G1 X93.25 Y125.103 E24.13028
G1 X93.25 Y104.897 E25.30617
G1 X93.318 Y104.559 E25.32623
G1 X93.498 Y104.152 E25.35213
G1 X93.639 Y103.957 E25.36613
G1 X93.86 Y103.736 E25.38432
M204 S2500
G1 X94.213 Y104.09 F7200
M204 S2000
G1 F3000
G1 X94.416 Y103.923 E25.39962
G1 X94.731 Y103.788 E25.41956
G1 X94.922 Y103.75 E25.43089
G1 X135.124 Y103.755 E27.77044
G1 X135.266 Y103.787 E27.77891
G1 X135.584 Y103.923 E27.79904
G1 X135.706 Y104.009 E27.80773
G1 X135.989 Y104.292 E27.83102
G1 X136.098 Y104.455 E27.84243
G1 X136.212 Y104.729 E27.8597
G1 X136.25 Y104.922 E27.87115
G1 X136.25 Y125.078 E29.04413
G1 X136.212 Y125.269 E29.05546
G1 X136.077 Y125.584 E29.0754
G1 X135.991 Y125.706 E29.08409
G1 X135.706 Y125.991 E29.10755
G1 X135.584 Y126.077 E29.11624
G1 X135.269 Y126.212 E29.13618
G1 X135.078 Y126.25 E29.14751
G1 X94.922 Y126.25 E31.48439
G1 X94.731 Y126.212 E31.49572
G1 X94.416 Y126.077 E31.51566
G1 X94.294 Y125.991 E31.52435
G1 X94.009 Y125.706 E31.54781
G1 X93.923 Y125.584 E31.5565
G1 X93.788 Y125.269 E31.57644
G1 X93.75 Y125.078 E31.58777
G1 X93.75 Y104.922 E32.76075
G1 X93.788 Y104.731 E32.77208
M73 P5 R6
G1 X93.923 Y104.416 E32.79202
G1 X94.009 Y104.294 E32.80071
G1 X94.171 Y104.132 E32.81404
M204 S2500
G1 X94.524 Y104.486 F7200
M204 S2000
G1 F3000
G1 X94.669 Y104.355 E32.82541
G1 X94.946 Y104.25 E32.84265
G1 X135.054 Y104.25 E35.17673
G1 X135.331 Y104.355 E35.19397
G1 X135.618 Y104.628 E35.21702
G1 X135.75 Y104.946 E35.23706
G1 X135.75 Y125.054 E36.40724
G1 X135.645 Y125.331 E36.42448
G1 X135.372 Y125.618 E36.44753
G1 X135.054 Y125.75 E36.46757
G1 X94.946 Y125.75 E38.80165
G1 X94.669 Y125.645 E38.81889
G1 X94.382 Y125.372 E38.84194
G1 X94.25 Y125.054 E38.86198
G1 X94.25 Y104.946 E40.03216
G1 X94.355 Y104.669 E40.0494
G1 X94.482 Y104.528 E40.06044
M204 S2500
G1 X94.835 Y104.881 F7200
M204 S2000
G1 F3000
G1 X94.929 Y104.788 E40.06814
G1 X95.021 Y104.75 E40.07393
G1 X134.979 Y104.75 E42.39928
G1 X135.071 Y104.788 E42.40507
G1 X135.212 Y104.929 E42.41667
G1 X135.25 Y105.021 E42.42246
G1 X135.25 Y124.979 E43.58391
G1 X135.212 Y125.071 E43.5897
M73 P6 R6
G1 X135.071 Y125.212 E43.6013
G1 X134.979 Y125.25 E43.60709
G1 X95.021 Y125.25 E45.93244
G1 X94.929 Y125.212 E45.93823
G1 X94.788 Y125.071 E45.94983
G1 X94.75 Y124.979 E45.95562
G1 X94.75 Y105.021 E47.11707
G1 X94.793 Y104.924 E47.12324
M204 S2500
G1 E45.72324 F4800
;WIPE_START
G1 F5760
G1 X94.929 Y104.788 E45.57098
G1 X95.021 Y104.75 E45.49218
G1 X95.487 Y104.75 E45.12324
;WIPE_END
G92 E0
G1 X134.6 Y124.6 F7200
G1 E2 F4800
M204 S2000
;TYPE:External perimeter
G1 F3000
G1 X95.4 Y124.6 E4.28124
G1 X95.4 Y105.4 E5.39858
M73 P6 R5
G1 X134.6 Y105.4 E7.67982
G1 X134.6 Y124.54 E8.79367
M204 S2500
M73 P7 R5
G1 X134.205 Y124.54 F7200
G1 X134.1 Y124.1
M204 S2000
;TYPE:Perimeter
G1 F3000
G1 X95.9 Y124.1 E11.01672
G1 X95.9 Y105.9 E12.07587
G1 X134.1 Y105.9 E14.29892
G1 X134.1 Y124.04 E15.35458
M204 S2500
G1 X133.6 Y123.6 F7200
M204 S2000
G1 F3000
G1 X96.4 Y123.6 E17.51943
G1 X96.4 Y106.4 E18.52038
G1 X133.6 Y106.4 E20.68523
M73 P8 R5
G1 X133.6 Y123.54 E21.68269
M204 S2500
G1 E20.28269 F4800
;WIPE_START
G1 F5760
G1 X132.842 Y123.541 E19.68269
;WIPE_END
G92 E0
G1 X133.4 Y107.624 F7200
G1 E2 F4800
M204 S2000
;TYPE:Solid infill
;WIDTH:0.566384
G1 F3000
G1 X132.601 Y106.825 E2.0666
G1 X131.885 Y106.825 E2.1088
G1 X133.175 Y108.115 E2.21632
G1 X133.175 Y108.831 E2.25852
G1 X131.169 Y106.825 E2.42572
G1 X130.453 Y106.825 E2.46792
G1 X133.175 Y109.547 E2.6948
G1 X133.175 Y110.263 E2.737
G1 X129.737 Y106.825 E3.02356
G1 X129.021 Y106.825 E3.06576
G1 X133.175 Y110.979 E3.412
G1 X133.175 Y111.695 E3.4542
G1 X128.305 Y106.825 E3.86012
G1 X127.589 Y106.825 E3.90232
G1 X133.175 Y112.411 E4.36792
G1 X133.175 Y113.127 E4.41012
G1 X126.873 Y106.825 E4.9354
G1 X126.157 Y106.825 E4.9776
G1 X133.175 Y113.843 E5.56256
G1 X133.175 Y114.559 E5.60476
G1 X125.441 Y106.825 E6.2494
G1 X124.725 Y106.825 E6.2916
G1 X133.175 Y115.275 E6.99592
G1 X133.175 Y115.991 E7.03812
G1 X124.009 Y106.825 E7.80212
G1 X123.293 Y106.825 E7.84432
G1 X133.175 Y116.707 E8.668
G1 X133.175 Y117.423 E8.7102
M73 P9 R5
G1 X122.577 Y106.825 E9.59356
G1 X121.861 Y106.825 E9.63576
G1 X133.175 Y118.139 E10.57879
G1 X133.175 Y118.855 E10.62099
G1 X121.145 Y106.825 E11.6237
G1 X120.429 Y106.825 E11.6659
G1 X133.175 Y119.571 E12.72829
G1 X133.175 Y120.287 E12.77049
G1 X119.713 Y106.825 E13.89256
G1 X118.997 Y106.825 E13.93476
G1 X133.175 Y121.003 E15.11651
G1 X133.175 Y121.719 E15.15871
G1 X118.281 Y106.825 E16.40014
G1 X117.565 Y106.825 E16.44234
G1 X133.175 Y122.435 E17.74345
G1 X133.175 Y123.151 E17.78565
G1 X116.849 Y106.825 E19.14644
G1 X116.133 Y106.825 E19.18864
M73 P10 R5
G1 X132.483 Y123.175 E20.55143
G1 X131.767 Y123.175 E20.59363
G1 X115.417 Y106.825 E21.95642
G1 X114.701 Y106.825 E21.99862
G1 X131.051 Y123.175 E23.36141
G1 X130.335 Y123.175 E23.40361
G1 X113.985 Y106.825 E24.7664
G1 X113.269 Y106.825 E24.8086
G1 X129.619 Y123.175 E26.17139
G1 X128.903 Y123.175 E26.21359
G1 X112.553 Y106.825 E27.57638
G1 X111.837 Y106.825 E27.61858
G1 X128.187 Y123.175 E28.98137
G1 X127.471 Y123.175 E29.02357
G1 X111.121 Y106.825 E30.38636
G1 X110.405 Y106.825 E30.42856
M73 P11 R5
G1 X126.755 Y123.175 E31.79135
G1 X126.039 Y123.175 E31.83355
G1 X109.689 Y106.825 E33.19634
G1 X108.973 Y106.825 E33.23854
G1 X125.323 Y123.175 E34.60133
G1 X124.607 Y123.175 E34.64353
G1 X108.257 Y106.825 E36.00632
G1 X107.541 Y106.825 E36.04852
G1 X123.891 Y123.175 E37.41131
G1 X123.175 Y123.175 E37.45351
G1 X106.825 Y106.825 E38.8163
G1 X106.109 Y106.825 E38.8585
G1 X122.459 Y123.175 E40.22129
G1 X121.743 Y123.175 E40.26349
M73 P12 R5
G1 X105.393 Y106.825 E41.62628
G1 X104.677 Y106.825 E41.66848
G1 X121.027 Y123.175 E43.03127
G1 X120.311 Y123.175 E43.07347
G1 X103.961 Y106.825 E44.43626
G1 X103.245 Y106.825 E44.47846
G1 X119.595 Y123.175 E45.84125
G1 X118.879 Y123.175 E45.88345
G1 X102.529 Y106.825 E47.24624
G1 X101.813 Y106.825 E47.28844
G1 X118.163 Y123.175 E48.65123
G1 X117.447 Y123.175 E48.69343
G1 X101.097 Y106.825 E50.05622
G1 X100.381 Y106.825 E50.09842
G1 X116.731 Y123.175 E51.46121
G1 X116.015 Y123.175 E51.50341
M73 P13 R5
G1 X99.665 Y106.825 E52.8662
G1 X98.949 Y106.825 E52.9084
G1 X115.299 Y123.175 E54.27119
G1 X114.583 Y123.175 E54.31339
G1 X98.233 Y106.825 E55.67618
G1 X97.517 Y106.825 E55.71838
G1 X113.867 Y123.175 E57.08117
G1 X113.151 Y123.175 E57.12337
G1 X96.825 Y106.849 E58.48416
G1 X96.825 Y107.565 E58.52636
G1 X112.435 Y123.175 E59.82747
G1 X111.719 Y123.175 E59.86967
G1 X96.825 Y108.281 E61.1111
G1 X96.825 Y108.997 E61.1533
G1 X111.003 Y123.175 E62.33505
G1 X110.287 Y123.175 E62.37725
M73 P14 R5
G1 X96.825 Y109.713 E63.49932
G1 X96.825 Y110.429 E63.54152
G1 X109.571 Y123.175 E64.60391
G1 X108.855 Y123.175 E64.64611
G1 X96.825 Y111.145 E65.64882
G1 X96.825 Y111.861 E65.69102
G1 X108.139 Y123.175 E66.63405
G1 X107.423 Y123.175 E66.67625
G1 X96.825 Y112.577 E67.55961
G1 X96.825 Y113.293 E67.60181
G1 X106.707 Y123.175 E68.42549
G1 X105.991 Y123.175 E68.46769
G1 X96.825 Y114.009 E69.23169
G1 X96.825 Y114.725 E69.27389
G1 X105.275 Y123.175 E69.97821
G1 X104.559 Y123.175 E70.02041
G1 X96.825 Y115.441 E70.66505
G1 X96.825 Y116.157 E70.70725
G1 X103.843 Y123.175 E71.29221
G1 X103.127 Y123.175 E71.33441
G1 X96.825 Y116.873 E71.85969
G1 X96.825 Y117.589 E71.90189
G1 X102.411 Y123.175 E72.36749
G1 X101.695 Y123.175 E72.40969
M73 P15 R5
G1 X96.825 Y118.305 E72.81561
G1 X96.825 Y119.021 E72.85781
G1 X100.979 Y123.175 E73.20405
G1 X100.263 Y123.175 E73.24625
G1 X96.825 Y119.737 E73.53281
G1 X96.825 Y120.453 E73.57501
G1 X99.547 Y123.175 E73.80189
G1 X98.831 Y123.175 E73.84409
G1 X96.825 Y121.169 E74.01129
G1 X96.825 Y121.885 E74.05349
G1 X98.115 Y123.175 E74.16101
G1 X97.399 Y123.175 E74.20321
G1 X96.6 Y122.376 E74.26981
M204 S2500
M106 S255
;LAYER_CHANGE
;Z:0.48
;HEIGHT:0.2
; BEFORE_LAYER_CHANGE 1 @ 0.48mm
G1 E72.86981 F4800
;WIPE_START
G1 F5760
G1 X97.136 Y122.912 E72.26981
;WIPE_END
G92 E0
G1 Z.48 F7200
; AFTER_LAYER_CHANGE 1 @ 0.48mm
M104 S190 ; set temperature
G1 X134.755 Y124.755
G1 E2 F4800
;TYPE:External perimeter
;WIDTH:0.45
G1 X95.245 Y124.755 E3.33737
G1 X95.245 Y105.245 E3.99776
G1 X134.755 Y105.245 E5.33513
G1 X134.755 Y124.695 E5.99349
G1 X134.36 Y124.694 F7200
G1 X134.373 Y124.373
;TYPE:Perimeter
;WIDTH:0.4
G1 F5625
G1 X95.627 Y124.373 E7.14391
G1 X95.627 Y105.627 E7.7005
G1 X134.373 Y105.627 E8.85092
G1 X134.373 Y124.313 E9.40573
M73 P16 R5
G1 X134.016 Y124.016 F7200
G1 F5625
G1 X95.984 Y124.016 E10.53495
G1 X95.984 Y105.984 E11.07034
G1 X134.016 Y105.984 E12.19956
G1 X134.016 Y123.956 E12.73317
G1 E11.33317 F4800
;WIPE_START
G1 F5760
G1 X133.258 Y123.957 E10.73317
;WIPE_END
G92 E0
G1 X133.876 Y122.952 F7200
G1 E2 F4800
;TYPE:Solid infill
;WIDTH:0.500019
G1 F5625
G1 X133.157 Y123.67 E2.03862
G1 X132.511 Y123.67 E2.06317
G1 X133.67 Y122.511 E2.12547
G1 X133.67 Y121.864 E2.15006
G1 X131.864 Y123.67 E2.24713
G1 X131.218 Y123.67 E2.27168
G1 X133.67 Y121.218 E2.40348
G1 X133.67 Y120.571 E2.42807
G1 X130.571 Y123.67 E2.59465
G1 X129.925 Y123.67 E2.6192
G1 X133.67 Y119.925 E2.8205
G1 X133.67 Y119.279 E2.84505
G1 X129.279 Y123.67 E3.08107
G1 X128.632 Y123.67 E3.10566
G1 X133.67 Y118.632 E3.37646
G1 X133.67 Y117.986 E3.40101
G1 X127.986 Y123.67 E3.70653
G1 X127.339 Y123.67 E3.73112
G1 X133.67 Y117.339 E4.07142
G1 X133.67 Y116.693 E4.09597
G1 X126.693 Y123.67 E4.47099
G1 X126.046 Y123.67 E4.49558
G1 X133.67 Y116.046 E4.90538
G1 X133.67 Y115.4 E4.92993
G1 X125.4 Y123.67 E5.37445
G1 X124.754 Y123.67 E5.399
G1 X133.67 Y114.754 E5.87825
G1 X133.67 Y114.107 E5.90284
G1 X124.107 Y123.67 E6.41686
G1 X123.461 Y123.67 E6.44141
G1 X133.67 Y113.461 E6.99016
G1 X133.67 Y112.814 E7.01475
M73 P17 R5
G1 X122.814 Y123.67 E7.59827
G1 X122.168 Y123.67 E7.62282
G1 X133.67 Y112.168 E8.24107
G1 X133.67 Y111.521 E8.26566
G1 X121.521 Y123.67 E8.91868
G1 X120.875 Y123.67 E8.94323
G1 X133.67 Y110.875 E9.63098
G1 X133.67 Y110.228 E9.65557
G1 X120.228 Y123.67 E10.3781
G1 X119.582 Y123.67 E10.40265
G1 X133.67 Y109.582 E11.1599
G1 X133.67 Y108.936 E11.18445
G1 X118.936 Y123.67 E11.97642
G1 X118.289 Y123.67 E12.00101
G1 X133.67 Y108.289 E12.82776
G1 X133.67 Y107.643 E12.85231
G1 X117.643 Y123.67 E13.71378
G1 X116.996 Y123.67 E13.73837
G1 X133.67 Y106.996 E14.63462
G1 X133.67 Y106.35 E14.65917
G1 X116.35 Y123.67 E15.59014
G1 X115.703 Y123.67 E15.61473
G1 X133.043 Y106.33 E16.54678
G1 X132.397 Y106.33 E16.57133
G1 X115.057 Y123.67 E17.50338
G1 X114.411 Y123.67 E17.52793
G1 X131.75 Y106.33 E18.45995
G1 X131.104 Y106.33 E18.4845
M73 P18 R5
G1 X113.764 Y123.67 E19.41655
G1 X113.118 Y123.67 E19.4411
G1 X130.457 Y106.33 E20.37312
G1 X129.811 Y106.33 E20.39767
G1 X112.471 Y123.67 E21.32972
G1 X111.825 Y123.67 E21.35427
G1 X129.164 Y106.33 E22.28629
G1 X128.518 Y106.33 E22.31084
G1 X111.178 Y123.67 E23.24289
G1 X110.532 Y123.67 E23.26744
G1 X127.872 Y106.33 E24.19949
G1 X127.225 Y106.33 E24.22408
G1 X109.885 Y123.67 E25.15613
G1 X109.239 Y123.67 E25.18068
G1 X126.579 Y106.33 E26.11273
G1 X125.932 Y106.33 E26.13732
G1 X108.593 Y123.67 E27.06934
G1 X107.946 Y123.67 E27.09393
G1 X125.286 Y106.33 E28.02598
G1 X124.639 Y106.33 E28.05057
G1 X107.3 Y123.67 E28.98259
G1 X106.653 Y123.67 E29.00718
G1 X123.993 Y106.33 E29.93923
G1 X123.347 Y106.33 E29.96378
M73 P19 R5
G1 X106.007 Y123.67 E30.89583
G1 X105.36 Y123.67 E30.92042
G1 X122.7 Y106.33 E31.85247
G1 X122.054 Y106.33 E31.87702
G1 X104.714 Y123.67 E32.80907
G1 X104.068 Y123.67 E32.83362
G1 X121.407 Y106.33 E33.76564
G1 X120.761 Y106.33 E33.79019
